svg/fluentui-system-icons/ic_fluent_document_arrow_left_20_filled.svg

<svg width="20" height="20" viewBox="0 0 20 20" fill="none" xmlns="http://www.w3.org/2000/svg">
<path d="M10 2V6.5C10 7.32843 10.6716 8 11.5 8H16V16.5C16 17.3284 15.3284 18 14.5 18H9.74284C10.5282 17.0491 11 15.8296 11 14.5C11 11.4624 8.53757 9 5.5 9C4.97999 9 4.47683 9.07217 4 9.20703V3.5C4 2.67157 4.67157 2 5.5 2H10ZM11 2.25V6.5C11 6.77614 11.2239 7 11.5 7H15.75L11 2.25ZM10 14.5C10 16.9853 7.98528 19 5.5 19C3.01472 19 1 16.9853 1 14.5C1 12.0147 3.01472 10 5.5 10C7.98528 10 10 12.0147 10 14.5ZM3.14684 14.146L3.14433 14.1486C3.09744 14.196 3.06198 14.2505 3.03794 14.3086C3.01385 14.3667 3.0004 14.4303 3.00001 14.497L3 14.5L3.00001 14.503C3.0004 14.5697 3.01385 14.6333 3.03794 14.6914C3.06234 14.7504 3.09851 14.8056 3.14645 14.8536L5.14645 16.8536C5.34171 17.0488 5.65829 17.0488 5.85355 16.8536C6.04882 16.6583 6.04882 16.3417 5.85355 16.1464L4.70711 15H7.5C7.77614 15 8 14.7761 8 14.5C8 14.2239 7.77614 14 7.5 14H4.70711L5.85355 12.8536C6.04882 12.6583 6.04882 12.3417 5.85355 12.1464C5.65829 11.9512 5.34171 11.9512 5.14645 12.1464L3.14684 14.146Z" fill="#212121"/>
</svg>

<svg xmlns="http://www.w3.org/2000/svg" width="20" height="20"><path d="M10 2v4.5A1.5 1.5 0 0 0 11.5 8H16v8.5a1.5 1.5 0 0 1-1.5 1.5H9.743A5.5 5.5 0 0 0 4 9.207V3.5A1.5 1.5 0 0 1 5.5 2H10Zm1 .25V6.5a.5.5 0 0 0 .5.5h4.25L11 2.25ZM10 14.5a4.5 4.5 0 1 1-9 0 4.5 4.5 0 0 1 9 0Zm-6.853-.354-.003.003a.498.498 0 0 0-.144.348v.006a.498.498 0 0 0 .146.35l2 2a.5.5 0 0 0 .708-.707L4.707 15H7.5a.5.5 0 0 0 0-1H4.707l1.147-1.146a.5.5 0 0 0-.708-.708l-2 2Z"/></svg>
